common/src/main/resources/files/plugins/datagrip/apacheIgniteFileType.svg

<!--
  - The MIT License (MIT)
  -
  - Copyright (c) 2015-2024 Elior "Mallowigi" Boukhobza
  -
  - Permission is hereby granted, free of charge, to any person obtaining a copy
  - of this software and associated documentation files (the "Software"), to deal
  - in the Software without restriction, including without limitation the rights
  - to use, copy, modify, merge, publish, distribute, sublicense, and/or sell
  - copies of the Software, and to permit persons to whom the Software is
  - furnished to do so, subject to the following conditions:
  -
  - The above copyright notice and this permission notice shall be included in all
  - copies or substantial portions of the Software.
  -
  - THE SOFTWARE IS PROVIDED "AS IS", WITHOUT WARRANTY OF ANY KIND, EXPRESS OR
  - IMPLIED, INCLUDING BUT NOT LIMITED TO THE WARRANTIES OF MERCHANTABILITY,
  - FITNESS FOR A PARTICULAR PURPOSE AND NONINFRINGEMENT. IN NO EVENT SHALL THE
  - AUTHORS OR COPYRIGHT HOLDERS BE LIABLE FOR ANY CLAIM, DAMAGES OR OTHER
  - LIABILITY, WHETHER IN AN ACTION OF CONTRACT, TORT OR OTHERWISE, ARISING FROM,
  - OUT OF OR IN CONNECTION WITH THE SOFTWARE OR THE USE OR OTHER DEALINGS IN THE
  - SOFTWARE.
  -->
<svg data-big="true" width="16px" height="16px" viewBox="0 0 16 16" fill="#ED1C24" xmlns="http://www.w3.org/2000/svg">
  <path
    d="M11.5832 12.0891C11.5832 12.0891 13.5656 10.1485 12.3179 7.98614C11.8833 7.23294 11.4355 6.75732 10.9938 6.28803C10.4739 5.73583 9.96234 5.1924 9.49016 4.21584C8.67249 2.52475 9.57333 1 9.57333 1C9.57333 1 6.28855 2.19208 6.38541 4.52079C6.4607 6.33119 7.9525 7.44025 9.24431 8.40062C9.65492 8.70589 10.0453 8.99614 10.3636 9.28911C11.5834 10.4119 11.5832 12.0891 11.5832 12.0891Z"
  />
  <path
    d="M10.2808 10.301C11.6391 12.2277 10.1144 14.5564 10.1144 14.5564C10.1144 14.5564 9.94774 13.3089 8.18734 12.0614C7.54757 11.608 6.9261 11.2378 6.35219 10.8958C4.71527 9.92061 3.46524 9.17588 3.28076 7.3901C3.07525 5.40074 5.8867 3.68911 5.8867 3.68911C5.8867 3.68911 5.0659 4.88303 5.99749 6.33663C6.92522 7.78422 7.8674 8.39753 8.6952 8.93638C9.30212 9.33145 9.84756 9.6865 10.2808 10.301Z"
  />
  <path
    d="M8.06216 12.7267C9.64987 13.6347 9.79483 15 9.79483 15C9.79483 15 9.16914 14.4034 8.01408 14.1198C7.26385 13.9356 6.69339 13.8745 6.21065 13.8228C5.45808 13.7421 4.91871 13.6843 4.24378 13.2188C2.52555 12.0337 3.95919 10.1208 3.95919 10.1208C3.95919 10.1208 4.05434 10.8027 4.73586 11.2713C5.5228 11.8123 6.05574 11.9704 6.59741 12.1311C7.03411 12.2606 7.47647 12.3918 8.06216 12.7267Z"
  />
</svg>

<svg xmlns="http://www.w3.org/2000/svg" width="16" height="16" fill="#ED1C24" data-big="true"><path d="M11.583 12.09s1.983-1.941.735-4.104c-.435-.753-.883-1.229-1.324-1.698-.52-.552-1.032-1.096-1.504-2.072C8.672 2.525 9.573 1 9.573 1S6.29 2.192 6.385 4.52c.076 1.811 1.568 2.92 2.86 3.88.41.306.8.596 1.119.89 1.22 1.122 1.22 2.8 1.22 2.8"/><path d="M10.28 10.301c1.36 1.927-.166 4.255-.166 4.255s-.166-1.247-1.927-2.495c-.64-.453-1.26-.823-1.835-1.165-1.637-.975-2.887-1.72-3.071-3.506-.206-1.99 2.606-3.7 2.606-3.7s-.821 1.193.11 2.647c.928 1.447 1.87 2.06 2.698 2.6.607.394 1.153.75 1.586 1.364"/><path d="M8.062 12.727C9.65 13.635 9.795 15 9.795 15s-.626-.597-1.78-.88a12.6 12.6 0 0 0-1.804-.297c-.753-.08-1.292-.139-1.967-.604-1.718-1.185-.285-3.098-.285-3.098s.095.682.777 1.15c.787.541 1.32.7 1.861.86.437.13.88.26 1.465.596"/></svg>
